svgs/sharp-light/share.svg

<svg xmlns="http://www.w3.org/2000/svg" viewBox="0 0 512 512"><!--! Font Awesome Pro 6.6.0 by @fontawesome - https://fontawesome.com License - https://fontawesome.com/license (Commercial License) Copyright 2024 Fonticons, Inc. --><path d="M71.8 446.6C101 469.9 128 480 128 480s-20.2-20.2-28.5-52.6C97.3 419 96 409.9 96 400c0-61.9 50.1-112 112-112l48 0 32 0 0 32 0 32 0 32 32 0L488.3 229.7 512 208l-23.7-21.7L320 32l-32 0 0 32 0 32 0 32-32 0-80 0C78.8 128 0 206.8 0 304c0 69.2 37.5 115.1 71.8 142.6zm-7.7-52.3C45.9 371.8 32 342.2 32 304c0-79.5 64.5-144 144-144l112 0 32 0 0-32 0-52.6L464.6 208 320 340.6l0-52.6 0-32-32 0-80 0c-77.6 0-140.9 61.4-143.9 138.3z"/></svg>

<svg xmlns="http://www.w3.org/2000/svg" viewBox="0 0 512 512"><!--! Font Awesome Pro 6.5.2 by @fontawesome - https://fontawesome.com License - https://fontawesome.com/license (Commercial License) Copyright 2024 Fonticons, Inc. --><path d="M71.8 446.6C101 469.9 128 480 128 480s-20.2-20.2-28.5-52.6C97.3 419 96 409.9 96 400c0-61.9 50.1-112 112-112h48 32v32 32 32h32L488.3 229.7 512 208l-23.7-21.7L320 32H288V64 96v32H256 176C78.8 128 0 206.8 0 304c0 69.2 37.5 115.1 71.8 142.6zm-7.7-52.3C45.9 371.8 32 342.2 32 304c0-79.5 64.5-144 144-144H288h32V128 75.4L464.6 208 320 340.6V288 256H288 208c-77.6 0-140.9 61.4-143.9 138.3z"/></svg>
